modules/ve-cite/icons/reference-existing-rtl.svg

<?xml version="1.0" encoding="UTF-8"?>
<svg xmlns="http://www.w3.org/2000/svg" width="24" height="24" viewBox="0 0 24 24">
	<path id="fore-reference" d="M17 5v17h-12c-1 0-2-1-2-2v-15h14zm-12 14c0 1 1 1 1 1h8v-13h-2v6l-2-2-2 2v-6h-3v12z"/>
	<path id="back-reference" d="M19 18h.3c1.5 0 2.7-1.2 2.7-2.7v-13.5h-3v16.2zm3-17h-16v2h16z"/>
</svg>

<?xml version="1.0" encoding="UTF-8"?>
<svg xmlns="http://www.w3.org/2000/svg" width="24" height="24" viewBox="0 0 24 24">
    <path id="fore-reference" d="M17 5v17H5c-1 0-2-1-2-2V5h14zM5 19c0 1 1 1 1 1h8V7h-2v6l-2-2-2 2V7H5v12z"/>
    <path id="back-reference" d="M19 18h.3c1.5 0 2.7-1.2 2.7-2.7V1.8h-3V18zm3-17H6v2h16z"/>
</svg>
